src/material_light_cursors/row-resize.svg

<svg xmlns="http://www.w3.org/2000/svg" id="svg5327" width="32" height="32" version="1.1">
 <defs id="defs5329">
  <filter id="filter1017" style="color-interpolation-filters:sRGB" width="1.091" height="1.102" x="-.04" y="-.05">
   <feGaussianBlur id="feGaussianBlur1019" stdDeviation=".17"/>
  </filter>
  <filter id="filter1037" style="color-interpolation-filters:sRGB" width="1.056" height="1.32" x="-.03" y="-.16">
   <feGaussianBlur id="feGaussianBlur1039" stdDeviation=".2"/>
  </filter>
  <filter id="filter1061" style="color-interpolation-filters:sRGB" width="1.091" height="1.102" x="-.04" y="-.05">
   <feGaussianBlur id="feGaussianBlur1063" stdDeviation=".17"/>
  </filter>
 </defs>
 <path id="path993" style="opacity:0.3;fill:#000000;fill-opacity:1;stroke-width:0.26513442;filter:url(#filter1061)" d="m 11.550125,20.626313 c -0.5197,0.2822 -0.7037,0.9345 -0.4076,1.4449 l 3.4275,5.9027 c 0.4062,0.6998 1.4214,0.7002 1.8272,7e-4 l 3.4691,-5.8756 c 0.4014,-0.7027 -0.1462,-1.6002 -0.959,-1.6 h -6.852 c -0.1763,6e-4 -0.3506,0.044 -0.5054,0.129 z"/>
 <path id="path991" style="opacity:0.3;fill:#000000;fill-opacity:1;stroke:none;stroke-width:1.99936354;stroke-linecap:round;stroke-linejoin:round;stroke-miterlimit:4;stroke-dasharray:none;stroke-dashoffset:0;stroke-opacity:1;paint-order:normal;filter:url(#filter1037)" d="m 7.501025,15.5009 c -0.2758,-0.026 -0.5,0.2232 -0.5,0.5 v 1.998 c 0,0.2768 0.223,0.5 0.5,0.5 h 8.5 7.5 c 0.277,0 0.5,-0.2232 0.5,-0.5 v -1.998 c 0,-0.2768 -0.2242,-0.5263 -0.5,-0.5 h -7.5 z"/>
 <path id="path995" style="opacity:0.3;fill:#000000;fill-opacity:1;stroke-width:0.26513442;filter:url(#filter1017)" d="m 11.550125,13.373701 c -0.5197,-0.2822 -0.7037,-0.9345 -0.4076,-1.4449 l 3.4275,-5.9027004 c 0.4062,-0.6998 1.4214,-0.7002 1.8272,-7e-4 l 3.4691,5.8756004 c 0.4014,0.7027 -0.1462,1.6002 -0.959,1.6 h -6.852 c -0.1763,-6e-4 -0.3506,-0.044 -0.5054,-0.129 z"/>
 <path id="path829" style="opacity:0.75;fill:none;fill-opacity:1;stroke:#010101;stroke-width:2;stroke-linecap:round;stroke-linejoin:round;stroke-miterlimit:4;stroke-dasharray:none;stroke-dashoffset:0;stroke-opacity:1;paint-order:normal" d="M 15.484375 5.0019531 C 15.129075 5.0020906 14.773412 5.1754906 14.570312 5.5253906 L 11.142578 11.429688 C 10.846478 11.940088 11.031081 12.590847 11.550781 12.873047 L 11.550781 12.871094 C 11.705581 12.956094 11.878388 13.001353 12.054688 13.001953 L 18.908203 13.001953 C 19.721003 13.002153 20.268587 12.103091 19.867188 11.400391 L 16.396484 5.5253906 C 16.193584 5.1756406 15.839675 5.0018156 15.484375 5.0019531 z M 7.5019531 15 C 7.2261531 14.974 7.0019531 15.2232 7.0019531 15.5 L 7.0019531 17.498047 C 7.0019531 17.774847 7.2249531 17.998047 7.5019531 17.998047 L 16.001953 17.998047 L 23.501953 17.998047 C 23.778953 17.998047 24.001953 17.774847 24.001953 17.498047 L 24.001953 15.5 C 24.001953 15.2232 23.777753 14.9737 23.501953 15 L 16.001953 15 L 7.5019531 15 z M 12.054688 19.998047 C 11.878388 19.998647 11.705581 20.043906 11.550781 20.128906 L 11.550781 20.126953 C 11.031081 20.409153 10.846478 21.059913 11.142578 21.570312 L 14.570312 27.474609 C 14.976513 28.174409 15.990684 28.174109 16.396484 27.474609 L 19.867188 21.599609 C 20.268587 20.896909 19.721003 19.997847 18.908203 19.998047 L 12.054688 19.998047 z"/>
 <path id="rect825" style="opacity:1;fill:#e4e4e4;fill-opacity:1;stroke:none;stroke-width:1.99936354;stroke-linecap:round;stroke-linejoin:round;stroke-miterlimit:4;stroke-dasharray:none;stroke-dashoffset:0;stroke-opacity:1;paint-order:normal" d="m 7.501025,15.0009 c -0.2758,-0.026 -0.5,0.2232 -0.5,0.5 v 1.998 c 0,0.2768 0.223,0.5 0.5,0.5 h 8.5 7.5 c 0.277,0 0.5,-0.2232 0.5,-0.5 v -1.998 c 0,-0.2768 -0.2242,-0.5263 -0.5,-0.5 h -7.5 z"/>
 <path id="path832" style="opacity:0.25;fill:#000000;fill-opacity:1;stroke:none;stroke-width:1.99936354;stroke-linecap:round;stroke-linejoin:round;stroke-miterlimit:4;stroke-dasharray:none;stroke-dashoffset:0;stroke-opacity:1;paint-order:normal" d="m 7.501025,15.0009 c -0.2758,-0.026 -0.5,0.2232 -0.5,0.5 v 1.998 c 0,0.2768 0.223,0.5 0.5,0.5 h 8.5 7.5 c 0.277,0 0.5,-0.2232 0.5,-0.5 v -1.998 c 0,-0.2768 -0.2242,-0.5263 -0.5,-0.5 h -7.5 z"/>
 <path id="path840" style="fill:#e4e4e4;fill-opacity:1;stroke-width:0.26513442" d="m 11.550125,20.126313 c -0.5197,0.2822 -0.7037,0.9345 -0.4076,1.4449 l 3.4275,5.9027 c 0.4062,0.6998 1.4214,0.7002 1.8272,7e-4 l 3.4691,-5.8756 c 0.4014,-0.7027 -0.1462,-1.6002 -0.959,-1.6 h -6.852 c -0.1763,6e-4 -0.3506,0.044 -0.5054,0.129 z"/>
 <path id="path852" style="fill:#e4e4e4;fill-opacity:1;stroke-width:0.26513442" d="m 11.550125,12.873701 c -0.5197,-0.2822 -0.7037,-0.9345 -0.4076,-1.4449 l 3.4275,-5.9027004 c 0.4062,-0.6998 1.4214,-0.7002 1.8272,-7e-4 l 3.4691,5.8756004 c 0.4014,0.7027 -0.1462,1.6002 -0.959,1.6 h -6.852 c -0.1763,-6e-4 -0.3506,-0.044 -0.5054,-0.129 z"/>
</svg>

<svg xmlns="http://www.w3.org/2000/svg" id="svg5327" width="32" height="32" version="1.1">
 <defs id="defs5329">
  <filter id="filter1017" style="color-interpolation-filters:sRGB" width="1.091" height="1.102" x="-.04" y="-.05">
   <feGaussianBlur id="feGaussianBlur1019" stdDeviation=".17"/>
  </filter>
  <filter id="filter1037" style="color-interpolation-filters:sRGB" width="1.056" height="1.32" x="-.03" y="-.16">
   <feGaussianBlur id="feGaussianBlur1039" stdDeviation=".2"/>
  </filter>
  <filter id="filter1061" style="color-interpolation-filters:sRGB" width="1.091" height="1.102" x="-.04" y="-.05">
   <feGaussianBlur id="feGaussianBlur1063" stdDeviation=".17"/>
  </filter>
 </defs>
 <path id="path993" style="opacity:0.3;fill:#000000;fill-opacity:1;stroke-width:0.26513442;filter:url(#filter1061)" d="m 11.550125,20.626313 c -0.5197,0.2822 -0.7037,0.9345 -0.4076,1.4449 l 3.4275,5.9027 c 0.4062,0.6998 1.4214,0.7002 1.8272,7e-4 l 3.4691,-5.8756 c 0.4014,-0.7027 -0.1462,-1.6002 -0.959,-1.6 h -6.852 c -0.1763,6e-4 -0.3506,0.044 -0.5054,0.129 z"/>
 <path id="path991" style="opacity:0.3;fill:#000000;fill-opacity:1;stroke:none;stroke-width:1.99936354;stroke-linecap:round;stroke-linejoin:round;stroke-miterlimit:4;stroke-dasharray:none;stroke-dashoffset:0;stroke-opacity:1;paint-order:normal;filter:url(#filter1037)" d="m 7.501025,15.5009 c -0.2758,-0.026 -0.5,0.2232 -0.5,0.5 v 1.998 c 0,0.2768 0.223,0.5 0.5,0.5 h 8.5 7.5 c 0.277,0 0.5,-0.2232 0.5,-0.5 v -1.998 c 0,-0.2768 -0.2242,-0.5263 -0.5,-0.5 h -7.5 z"/>
 <path id="path995" style="opacity:0.3;fill:#000000;fill-opacity:1;stroke-width:0.26513442;filter:url(#filter1017)" d="m 11.550125,13.373701 c -0.5197,-0.2822 -0.7037,-0.9345 -0.4076,-1.4449 l 3.4275,-5.9027004 c 0.4062,-0.6998 1.4214,-0.7002 1.8272,-7e-4 l 3.4691,5.8756004 c 0.4014,0.7027 -0.1462,1.6002 -0.959,1.6 h -6.852 c -0.1763,-6e-4 -0.3506,-0.044 -0.5054,-0.129 z"/>
 <path id="rect825" style="opacity:1;fill:#e4e4e4;fill-opacity:1;stroke:none;stroke-width:1.99936354;stroke-linecap:round;stroke-linejoin:round;stroke-miterlimit:4;stroke-dasharray:none;stroke-dashoffset:0;stroke-opacity:1;paint-order:normal" d="m 7.501025,15.0009 c -0.2758,-0.026 -0.5,0.2232 -0.5,0.5 v 1.998 c 0,0.2768 0.223,0.5 0.5,0.5 h 8.5 7.5 c 0.277,0 0.5,-0.2232 0.5,-0.5 v -1.998 c 0,-0.2768 -0.2242,-0.5263 -0.5,-0.5 h -7.5 z"/>
 <path id="path832" style="opacity:0.34;fill:#000000;fill-opacity:1;stroke:none;stroke-width:1.99936354;stroke-linecap:round;stroke-linejoin:round;stroke-miterlimit:4;stroke-dasharray:none;stroke-dashoffset:0;stroke-opacity:1;paint-order:normal" d="m 7.501025,15.0009 c -0.2758,-0.026 -0.5,0.2232 -0.5,0.5 v 1.998 c 0,0.2768 0.223,0.5 0.5,0.5 h 8.5 7.5 c 0.277,0 0.5,-0.2232 0.5,-0.5 v -1.998 c 0,-0.2768 -0.2242,-0.5263 -0.5,-0.5 h -7.5 z"/>
 <path id="path882" style="color:#000000;font-style:normal;font-variant:normal;font-weight:normal;font-stretch:normal;font-size:medium;line-height:normal;font-family:sans-serif;font-variant-ligatures:normal;font-variant-position:normal;font-variant-caps:normal;font-variant-numeric:normal;font-variant-alternates:normal;font-feature-settings:normal;text-indent:0;text-align:start;text-decoration:none;text-decoration-line:none;text-decoration-style:solid;text-decoration-color:#000000;letter-spacing:normal;word-spacing:normal;text-transform:none;writing-mode:lr-tb;direction:ltr;text-orientation:mixed;dominant-baseline:auto;baseline-shift:baseline;text-anchor:start;white-space:normal;shape-padding:0;clip-rule:nonzero;display:inline;overflow:visible;visibility:visible;opacity:0.05;isolation:auto;mix-blend-mode:normal;color-interpolation:sRGB;color-interpolation-filters:linearRGB;solid-color:#000000;solid-opacity:1;vector-effect:none;fill:#010101;fill-opacity:1;fill-rule:nonzero;stroke:none;stroke-width:2;stroke-linecap:round;stroke-linejoin:round;stroke-miterlimit:4;stroke-dasharray:none;stroke-dashoffset:0;stroke-opacity:1;paint-order:normal;color-rendering:auto;image-rendering:auto;shape-rendering:auto;text-rendering:auto;enable-background:accumulate" d="m 7.501025,15.0009 c -0.2758,-0.026 -0.5,0.2232 -0.5,0.5 v 1.998 c 0,0.2768 0.223,0.5 0.5,0.5 h 8.5 7.5 c 0.277,0 0.5,-0.2232 0.5,-0.5 v -1.998 c 0,-0.2768 -0.2242,-0.5263 -0.5,-0.5 h -7.5 z m 0.5,1 h 8 7 v 0.998 h -7 -8 z"/>
 <path id="path833" style="opacity:0.35;fill:none;fill-opacity:1;stroke:#000000;stroke-width:1;stroke-linecap:round;stroke-linejoin:round;stroke-miterlimit:4;stroke-dasharray:none;stroke-opacity:1" d="m 15.484375,5.0019537 c -0.3553,1.375e-4 -0.710963,0.1735375 -0.914063,0.5234375 l -3.427734,5.9042978 c -0.2961,0.5104 -0.111497,1.161159 0.408203,1.443359 v -0.002 c 0.1548,0.085 0.327607,0.130259 0.503907,0.130859 h 6.853515 c 0.8128,2e-4 1.360384,-0.898862 0.958985,-1.601562 L 16.396484,5.5253912 c -0.2029,-0.34975 -0.556809,-0.523575 -0.912109,-0.5234375 z"/>
 <path id="path841" style="opacity:0.35;fill:none;fill-opacity:1;stroke:#000000;stroke-width:1;stroke-linecap:round;stroke-linejoin:round;stroke-miterlimit:4;stroke-dasharray:none;stroke-opacity:1" d="m 12.054688,19.99806 c -0.1763,6e-4 -0.349107,0.04586 -0.503907,0.130859 v -0.002 c -0.5197,0.2822 -0.704303,0.932959 -0.408203,1.443359 l 3.427734,5.904297 c 0.406201,0.6998 1.420372,0.6995 1.826172,0 l 3.470704,-5.875 c 0.401399,-0.7027 -0.146185,-1.601762 -0.958985,-1.601562 z"/>
 <path id="path840" style="fill:#e4e4e4;fill-opacity:1;stroke-width:0.26513442" d="m 11.550125,20.126313 c -0.5197,0.2822 -0.7037,0.9345 -0.4076,1.4449 l 3.4275,5.9027 c 0.4062,0.6998 1.4214,0.7002 1.8272,7e-4 l 3.4691,-5.8756 c 0.4014,-0.7027 -0.1462,-1.6002 -0.959,-1.6 h -6.852 c -0.1763,6e-4 -0.3506,0.044 -0.5054,0.129 z"/>
 <path id="path852" style="fill:#e4e4e4;fill-opacity:1;stroke-width:0.26513442" d="m 11.550125,12.873701 c -0.5197,-0.2822 -0.7037,-0.9345 -0.4076,-1.4449 l 3.4275,-5.9027004 c 0.4062,-0.6998 1.4214,-0.7002 1.8272,-7e-4 l 3.4691,5.8756004 c 0.4014,0.7027 -0.1462,1.6002 -0.959,1.6 h -6.852 c -0.1763,-6e-4 -0.3506,-0.044 -0.5054,-0.129 z"/>
</svg>
